src/assets/icons/password.svg

<svg width="34" height="24" viewBox="0 0 34 24" fill="none" xmlns="http://www.w3.org/2000/svg">
<path d="M0.5 3C0.5 1.61929 1.61929 0.5 3 0.5H31C32.3807 0.5 33.5 1.61929 33.5 3V21C33.5 22.3807 32.3807 23.5 31 23.5H3C1.61929 23.5 0.5 22.3807 0.5 21V3Z" fill="#FDF4DC" stroke="#FAE7B9"/>
<path d="M21.5581 11.9953C21.5579 11.4036 21.0959 10.9215 20.5133 10.8857H14.9316L14.9311 9.24373C14.9305 8.1148 15.8487 7.19573 16.9776 7.1952C18.1065 7.19467 19.0256 7.97947 19.0261 9.1084C19.0264 9.34707 19.2205 9.54053 19.4593 9.54053H19.7895C20.0284 9.54053 20.2221 9.34667 20.222 9.10773C20.2209 7.3196 18.7649 5.99907 16.9769 6C15.1889 6.00093 13.7351 7.45613 13.736 9.24427L13.7365 10.8857H13.6299H13.5135C12.8984 10.886 12.4 11.3849 12.4004 12L12.4013 16.8869C12.4016 17.502 12.9005 18.0004 13.5156 18L20.446 17.9965C21.0611 17.9963 21.5595 17.4973 21.5591 16.8823L21.5581 11.9953Z" fill="#D9822F"/>
</svg>

<svg width="34" height="24" fill="none" xmlns="http://www.w3.org/2000/svg"><path d="M.5 3A2.5 2.5 0 013 .5h28A2.5 2.5 0 0133.5 3v18a2.5 2.5 0 01-2.5 2.5H3A2.5 2.5 0 01.5 21V3z" fill="#FDF4DC" stroke="#FAE7B9"/><path d="M21.558 11.995c0-.591-.462-1.073-1.045-1.11h-5.581V9.245a2.05 2.05 0 012.046-2.049c1.128 0 2.048.784 2.048 1.913 0 .24.195.433.433.433h.33a.433.433 0 00.433-.433C20.221 7.32 18.765 5.999 16.977 6a3.246 3.246 0 00-3.241 3.244v1.642h-.223c-.615 0-1.113.499-1.113 1.114l.001 4.887c0 .615.5 1.113 1.115 1.113l6.93-.003c.615 0 1.113-.5 1.113-1.115v-4.887z" fill="#D9822F"/></svg>
